X:1
T:James Gibb editions
T:Lord, thy ransomed church is waking - Barnby
%%score [ ( 1 2 ) ( 3 4 ) ]
L:1/8
Q:1/4=80
M:4/4
K:A
V:1 treble nm="Midi_74"
V:2 treble 
V:3 bass nm="Midi_74"
V:4 bass 
V:1
"^87. 87. D""^Sarah Geraldina Stock\n(1839-98)""^Lord, thy ransomed church is waking""^Joseph Barnby\n(1838-96)" E2 F2 | %1
 A2 A2 A2 A2 | B2 A2 || B2 c2 | d2 c2 B2 A2 | B4 || E2 F2 | A3 A A2 A2 | B2 A2 || c2 e2 | %10
 e2 B2 A2 F2 | E4 ||[M:4/4] E2 E2 | B3 A A2 G2 | F2 E2 || E2 E2 | c2 c2 B2 A2 | d4 || c2 B2 | %19
 e3 e d2 c2 | f2 d2 || c2 B2 | E2 A2 A2 G2 | A4 || A4 A4 |] %25
V:2
 E2 F2 | A2 C2 E2 C2 | E2 C2 || E2 =G2 | F2 E2 E2 C2 | E4 || E2 F2 | A2 C2 E2 C2 | E2 C2 || E2 A2 | %10
 G2 E2 ^D2 D2 | E4 ||[M:4/4] E2 E2 | D3 D D2 D2 | D2 D2 || D2 D2 | C2 C2 E2 E2 | D4 || E2 E2 | %19
 E3 E F2 F2 | F2 F2 || F2 F2 | E2 E2 E2 E2 | E4 || F4 E4 |] %25
V:3
 E,2 F,2 | A,2 A,2 A,2 A,2 | G,2 A,2 || B,2 A,2 | A,2 A,2 G,2 A,2 | G,4 || E,2 F,2 | %7
 A,2 A,2 A,2 A,2 | G,2 A,2 || A,2 C2 | B,2 G,2 F,2 A,2 | G,4 || %12
[M:4/4]"^1. Lord, Thy ransomed Church is waking\nOut of slumber far and near,\nKnowing that the morn is breaking\nWhen the Bridegroom will appear;\nWaking up to claim the treasure\nWith Thy precious life-blood bought,\nAnd to trust in fuller measure\nAll Thy wondrous death hath wrought.\n\n2. Praise to Thee for this glad shower,\nPrecious drops of latter rain;\nPraise, that by Thy Spirit’s power\nThou hast quickened us again;\nThat Thy Gospel’s priceless treasure\nNow is borne from land to land,\nAnd that all the Father’s pleasure\nProspers in Thy piercèd hand." E,2 E,2 | %13
 G,3 A, A,2 B,2 | A,2 G,2 || A,2 B,2 | A,2 A,2 B,2 C2 | A,4 || A,2 G,2 | %19
"^3. Praise to Thee for saved ones yearning\nOer the lost and wandering throng;\nPraise for voices daily learning\nTo upraise the glad new song;\nPraise to Thee for sick ones hasting\nNow to touch Thy garments hem;\nPraise for souls believingtasting\nAll Thy love has won for them.\n\n4. Set on fire our hearts devotion\nWith the love of Thy dear name;\nTill oer every land and ocean\nLips and lives Thy cross proclaim.\nFix our eyes on Thy returning,\nKeeping watch till Thou shalt come,\nLoins well girt, lamps brightly burning,\nThen, Lord, take Thy servants home." A,3 A, ^A,2 A,2 | %20
 B,2 F2 || E2 D2 | C2 B,A, B,2 D2 | C4 || D4 C4 |] %25
V:4
 E,2 F,2 | A,2 A,,2 C,2 F,2 | E,2 A,2 || =G,2 E,2 | D,2 A,,2 E,2 F,2 | E,4 || E,2 F,2 | %7
 A,2 A,,2 C,2 F,2 | E,2 A,,2 || A,2 F,2 | B,2 B,2 B,,2 B,,2 | E,4 ||[M:4/4] E,2 E,2 | %13
 E,3 E, E,2 E,2 | E,2 E,2 || F,2 G,2 | A,2 A,2 =G,2 G,2 | F,4 || E,2 D,2 | C,3 C, F,2 E,2 | %20
 D,2 B,,2 || C,2 D,2 | E,2 E,2 E,2 E,2 | A,,4 || D,4 A,,4 |] %25

